assets/icons/google.svg

<svg width="20" height="21" viewBox="0 0 20 21" fill="none" xmlns="http://www.w3.org/2000/svg">
<path d="M18.1706 8.86824H17.4993V8.83366H9.99935V12.167H14.7089C14.0218 14.1074 12.1756 15.5003 9.99935 15.5003C7.2381 15.5003 4.99935 13.2616 4.99935 10.5003C4.99935 7.73908 7.2381 5.50033 9.99935 5.50033C11.2739 5.50033 12.4335 5.98116 13.3164 6.76658L15.6735 4.40949C14.1852 3.02241 12.1943 2.16699 9.99935 2.16699C5.39727 2.16699 1.66602 5.89824 1.66602 10.5003C1.66602 15.1024 5.39727 18.8337 9.99935 18.8337C14.6014 18.8337 18.3327 15.1024 18.3327 10.5003C18.3327 9.94158 18.2752 9.39616 18.1706 8.86824Z" fill="#FFC107"/>
<path d="M2.62695 6.62157L5.36487 8.62949C6.1057 6.79533 7.89987 5.50033 9.99945 5.50033C11.274 5.50033 12.4336 5.98116 13.3165 6.76657L15.6736 4.40949C14.1853 3.02241 12.1945 2.16699 9.99945 2.16699C6.79862 2.16699 4.02279 3.97408 2.62695 6.62157Z" fill="#FF3D00"/>
<path d="M10.0008 18.8336C12.1533 18.8336 14.1091 18.0099 15.5879 16.6703L13.0087 14.4878C12.172 15.1215 11.132 15.5003 10.0008 15.5003C7.83328 15.5003 5.99286 14.1182 5.29953 12.1895L2.58203 14.2832C3.9612 16.982 6.76203 18.8336 10.0008 18.8336Z" fill="#4CAF50"/>
<path d="M18.1712 8.86759H17.5V8.83301H10V12.1663H14.7096C14.3796 13.0984 13.78 13.9022 13.0067 14.4876L13.0079 14.4868L15.5871 16.6693C15.4046 16.8351 18.3333 14.6663 18.3333 10.4997C18.3333 9.94092 18.2758 9.39551 18.1712 8.86759Z" fill="#1976D2"/>
</svg>

<svg xmlns="http://www.w3.org/2000/svg" width="20" height="21" fill="none" viewBox="0 0 20 21"><path fill="#ffc107" d="M18.17 8.868h-.67v-.034H10v3.333h4.709a4.998 4.998 0 0 1-9.71-1.667 5 5 0 0 1 5-5c1.275 0 2.435.481 3.317 1.267l2.358-2.358a8.3 8.3 0 0 0-5.675-2.242 8.334 8.334 0 1 0 8.172 6.701"/><path fill="#ff3d00" d="m2.627 6.622 2.738 2.007A5 5 0 0 1 9.999 5.5c1.275 0 2.435.481 3.317 1.267l2.358-2.358a8.3 8.3 0 0 0-5.675-2.242 8.33 8.33 0 0 0-7.372 4.455"/><path fill="#4caf50" d="M10 18.834a8.3 8.3 0 0 0 5.588-2.164l-2.58-2.182a4.96 4.96 0 0 1-3.007 1.012A5 5 0 0 1 5.3 12.19l-2.718 2.093a8.33 8.33 0 0 0 7.419 4.55"/><path fill="#1976d2" d="M18.171 8.868H17.5v-.035H10v3.333h4.71a5 5 0 0 1-1.703 2.322v-.001l2.58 2.182c-.182.166 2.746-2.003 2.746-6.17 0-.558-.057-1.103-.162-1.631"/></svg>
